!!!!SEGMENT: pl-sa--159-a-iv-9--003_luna-georgius--vesperae-ex-d-laetatus-sum.krn
!!!cenid: 17xx:461
!!!COM: Luna, Georgius
!!!COM-rismID: pe41010079
!!!CDT:
!!!CNT:
!!!OPR: Vesperae ex D
!!!OTL: Laetatus sum
!!!OMV: 003
!!!PDT:
!!!AGN: Sacred; Vespers
!!!SMS-siglum: PL-SA
!!!SMS-shelfmark: 159/A IV 9
!!!SMS-shelfwork: 001-003 M
!!!SMS-variant:
!!!SMS-altvar:
!!!NIFC-rismSourceID: 1001070706
!!!NIFC-islandoraID:
!!!URL-pdf-islandora:
!!!URL-scan: https://bc.bdsandomierz.pl/dlibra/publication/1545/edition/1513/content @EN{Scan in the Sandomierz Diocese Digital Library} @PL{Skany w portalu Cyfrowa Biblioteka Diecezjalna w Sandomierzu}
!!!ONB-nifc: UWAGA: części Vesperae: Dixit Dominus, Laudate pueri, Laetatus sum, Nisi Dominus, Lauda Jerusalem, Magnificat. UWAGA: brak partii clarino 1, clarino 2
!!!AIN: 1 empty 1 tenor 2 violn 1 vox
!!!key:
**kern	**dynam	**kern	**dynam	**kern	**dynam	**kern	**text	**kern	**text
*part5	*part5	*part4	*part4	*part3	*part3	*part2	*part2	*part1	*part1
*	*	*group2	*	*group2	*	*group1	*	*group1	*
*staff5	*	*staff4	*	*staff3	*	*staff2	*staff2	*staff1	*staff1
*Iempty	*	*Ivioln	*	*Ivioln	*	*Itenor	*	*Ivox	*
*I"Fondameto	*	*I"Violino Secundo	*	*I"Violino Primo	*	*I"Tenore	*	*I"Canto	*
*I'Fund.	*	*I'V-no II	*	*I'V-no I	*	*I'T.	*	*I'C.	*
*clefF4	*	*clefG2	*	*clefG2	*	*clefC4	*	*clefC1	*
*Trd0c0	*	*	*	*	*	*	*	*	*
*k[f#c#]	*	*k[f#c#]	*	*k[f#c#]	*	*k[f#c#]	*	*k[f#c#]	*
*D:	*	*D:	*	*D:	*	*D:	*	*D:	*
*M3/4	*	*M3/4	*	*M3/4	*	*M3/4	*	*M3/4	*
=1	=1	=1	=1	=1	=1	=1	=1	=1	=1
!LO:TX:a:t=allo Solo	!	!LO:TX:a:t=allo	!	!LO:TX:a:t=allo	!	!LO:TX:a:t=allo Solo	!	!LO:TX:a:t=allo	!
!	!	!	!	!LO:TX:a:t=P:problem=brak nazwy instrumentu na karcie głosu	!	!LO:TX:a:t=P:problem=przy kluczu jeden krzyżyk nad drugim	!	!LO:TX:a:t=P:problem=przy kluczu jeden krzyżyk nad drugim, cis oktawę wyżej	!
!	!	!LO:N:vis=00	!	!LO:N:vis=00	!	!	!	!LO:N:vis=00	!
4D\	.	0.r	.	0.r	.	4d\	Lae-	0.r	.
.	.	.	.	.	.	8qqf#/	.	.	.
4G\	.	.	.	.	.	4e\	-ta-	.	.
.	.	.	.	.	.	8qqd/	.	.	.
4A\	.	.	.	.	.	4c#\	-tus	.	.
=2	=2	=2	=2	=2	=2	=2	=2	=2	=2
.	.	.	.	.	.	8qqc#/	.	.	.
*	*	*	*	*	*	*2\right	*	*	*
4D\	.	.	.	.	.	2d\	Sum	.	.
4F#\	.	.	.	.	.	.	.	.	.
4D\	.	.	.	.	.	4A\	in	.	.
=3	=3	=3	=3	=3	=3	=3	=3	=3	=3
4GG/	.	.	.	.	.	2B\	his	.	.
4G\	.	.	.	.	.	.	.	.	.
!	!	!	!	!	!	!LO:SIC:l:s=quae:v	!	!	!
4E\	.	.	.	.	.	4g\	que	.	.
=4	=4	=4	=4	=4	=4	=4	=4	=4	=4
4FF#/	.	.	.	.	.	4A\	dic-	.	.
4F#\	.	.	.	.	.	4A\	-ta	.	.
4D\	.	.	.	.	.	4f#\	ſ(un)t	.	.
=5	=5	=5	=5	=5	=5	=5	=5	=5	=5
.	.	.	.	.	.	8qqA/	.	.	.
!	!	!LO:N:vis=00	!	!LO:N:vis=00	!	!	!	!LO:N:vis=00	!
4E\	.	0.r	.	0.r	.	2.G/	mi-	0.r	.
4C#\	.	.	.	.	.	.	.	.	.
4AA/	.	.	.	.	.	.	.	.	.
=6	=6	=6	=6	=6	=6	=6	=6	=6	=6
4D\	.	.	.	.	.	2F#/	-hi	.	.
4E\	.	.	.	.	.	.	.	.	.
4F#\	.	.	.	.	.	4A\	in	.	.
=7	=7	=7	=7	=7	=7	=7	=7	=7	=7
4G\	.	.	.	.	.	2B\	do-	.	.
4B\	.	.	.	.	.	.	.	.	.
4G\	.	.	.	.	.	4e\	-mum	.	.
=8	=8	=8	=8	=8	=8	=8	=8	=8	=8
.	.	.	.	.	.	8qqd/	.	.	.
4A\	.	.	.	.	.	4c#\	Do-	.	.
4G\	.	.	.	.	.	8B\L	-mi-	.	.
.	.	.	.	.	.	8A\J	.	.	.
4F#\	.	.	.	.	.	4d\	-ni	.	.
=9	=9	=9	=9	=9	=9	=9	=9	=9	=9
*	*	*	*	*	*	*Xtuplet	*	*	*
4G\	.	2.r	.	2.r	.	12g\L	i-	2.r	.
.	.	.	.	.	.	12f#\	.	.	.
.	.	.	.	.	.	12e\J	.	.	.
.	.	.	.	.	.	8qqd/	.	.	.
4A\	.	.	.	.	.	4.c#\	.	.	.
4AA/	.	.	.	.	.	.	.	.	.
.	.	.	.	.	.	8c#\	-bi-	.	.
=10	=10	=10	=10	=10	=10	=10	=10	=10	=10
!	!LO:DY:a	!	!	!	!	!	!	!	!
4D\	f	4r	.	4r	.	4d\	-muſ	4r	.
!	!	!	!	!	!	!LO:TX:a:t=Tutti	!	!	!
4D\	.	4a/	.	8ff#\L	.	4A\	Stan-	4ff#\	Stan-
.	.	.	.	8aa\	.	.	.	.	.
4F#\	.	4a/	.	8ff#\	.	4A\	-teſ	4ff#\	-teſ
.	.	.	.	8dd\J	.	.	.	.	.
=11	=11	=11	=11	=11	=11	=11	=11	=11	=11
*	*	*	*	*	*	*	*	*2\right	*
4A\	.	4cc#\	.	8ee\L	.	2c#\	e-	2ee\	e-
.	.	.	.	8a\	.	.	.	.	.
4c#\	.	4a/	.	8ee\	.	.	.	.	.
.	.	.	.	8aa\	.	.	.	.	.
4d\	.	4a/	.	8ff#\	.	4A\	-rant	4ff#\	-rant
.	.	.	.	8dd\J	.	.	.	.	.
=12	=12	=12	=12	=12	=12	=12	=12	=12	=12
4A\	.	4cc#\	.	8ee\L	.	2c#\	pe-	2ee\	pe-
.	.	.	.	8a\	.	.	.	.	.
4c#\	.	4a/	.	8ee\	.	.	.	.	.
.	.	.	.	8aa\	.	.	.	.	.
4d\	.	4a/	.	8ff#\	.	4A\	-deſ	4ff#\	-des
.	.	.	.	8dd\J	.	.	.	.	.
=13	=13	=13	=13	=13	=13	=13	=13	=13	=13
4A\	.	8cc#\L	.	8ee\L	.	4c#\	noſ-	4ee\	noſ-
.	.	8a\	.	8a\	.	.	.	.	.
!	!	!	!	!	!	!	!	!LO:SIC:l:s=-tri:v	!
4AA/	.	8cc#\	.	8cc#\	.	4c#\	-tri	4ee\	-tra
.	.	8ee\J	.	8ee\J	.	.	.	.	.
4A\	.	4cc#\	.	[4aa\	.	4A\	in	4cc#\	in
!	!	!	!	!	!	!LO:LB:g=original	!	!	!
=14	=14	=14	=14	=14	=14	=14	=14	=14	=14
*	*	*	*	*2\right	*	*	*	*	*
4B\	.	4dd\	.	2aa\]	.	4A/	a-	4dd\	a-
4c#\	.	4ee\	.	.	.	4G/	-tri-	4ee\	-tri-
4c#\	.	4ee\	.	4gg\	.	4G/	-is	4ee\	-is
=15	=15	=15	=15	=15	=15	=15	=15	=15	=15
4d\	.	8a\L	.	8ff#\L	.	(4A\	tu-	(4ff#\	tu-
.	.	8ff#\	.	8aa\	.	.	.	.	.
4A\	.	8gg\	.	8bb\	.	4c#\)	.	4ee\)	.
.	.	8ee\	.	8ccc#\J	.	.	.	.	.
4F#\	.	8ff#\	.	4ddd\	.	4d\	-is	4dd\	-is
.	.	8a\J	.	.	.	.	.	.	.
=16	=16	=16	=16	=16	=16	=16	=16	=16	=16
4G\	.	4b\	.	8gg\L	.	4e\	Je-	4gg\	Je-
.	.	.	.	8ee\J	.	.	.	.	.
.	.	.	.	8qqdd/	.	8qqd/	.	8qqff#/	.
!	!	!	!	!LO:TX:a:t=P:global:problem=niejednoznaczny zapis ozdobnika [przyjęto tryl]	!	!	!	!	!
4A\	.	4e/	.	2cc#t\	.	4.c#\	-ru-	4.ee\	-ru-
4AA/	.	4e/	.	.	.	.	.	.	.
.	.	.	.	.	.	8c#\	-sa-	8ee\	-ſa-
=17	=17	=17	=17	=17	=17	=17	=17	=17	=17
!LO:TX:a:t=P:problem=niepewny zapis, uszkodzona kartka	!	!	!	!	!	!	!	!	!
4D\	.	4f#/	.	4dd\	.	4d\	-lem	4ff#\	-lem
4r	.	4ff#\	.	4ddd\	.	4r	.	4r	.
4D\	.	4a/	.	4ff#\	.	4A\	Je-	4ff#\	Je-
!LO:LB:g=original	!	!	!	!	!	!	!	!	!
=18	=18	=18	=18	=18	=18	=18	=18	=18	=18
4.A\	.	4.cc#\	.	4.ee\	.	4.c#\	-ru-	4.ee\	-ru-
8A\	.	8cc#\	.	8ee\	.	8c#\	-sa-	8ee\	-sa-
4A\	.	4cc#\	.	4ee\	.	4c#\	-lem	4ee\	-lem
=19	=19	=19	=19	=19	=19	=19	=19	=19	=19
8G#X\L	.	8b\L	.	8bb\L	.	8d\	quae	8b\	que
8A\J	.	8cc#\J	.	8aa\	.	8c#\	ae-	8cc#\	ae-
4B\	.	4dd\	.	8gg#X\	.	4B\	-di-	4dd\	-di-
.	.	.	.	8ff#\	.	.	.	.	.
4G#\	.	4b\	.	8ee\	.	4d\	-fi-	4b\	-fi-
.	.	.	.	8dd\J	.	.	.	.	.
!	!	!	!	!	!	!	!	!LO:LB:g=original	!
=20	=20	=20	=20	=20	=20	=20	=20	=20	=20
4A\	.	4cc#\	.	8cc#\L	.	(4A\	-ca-	(4cc#\	-ca-
.	.	.	.	8ee\	.	.	.	.	.
4BB/	.	4dd\	.	8ff#\	.	4G#X\)	.	4dd\)	.
.	.	.	.	8gg#X\	.	.	.	.	.
!	!	!	!	!	!	!	!	!LO:SIC:l:s=-tur:v	!
4C#/	.	8ee\L	.	8aa\	.	4A\	-tur	4ee\	-tum
.	.	8a\J	.	8ee\J	.	.	.	.	.
=21	=21	=21	=21	=21	=21	=21	=21	=21	=21
4D\	.	4b\	.	8ff#\L	.	4B\	ut	8ff#\L	ut
.	.	.	.	8dd\J	.	.	.	8dd\J	.
4E\	.	4a\	.	4cc#\	.	4A\	ci-	4cc#\	ci-
!	!	!LO:TX:a:t=P:global:problem=niejednoznaczny zapis ozdobnika [przyjęto tryl]	!	!	!	!	!	!LO:TX:a:t=P:global:problem=niejednoznaczny zapis ozdobnika [przyjęto tryl]	!
4EE/	.	4g#Xt/	.	4bT\	.	4G#X\	-vi-	4bT\	-vi-
=22	=22	=22	=22	=22	=22	=22	=22	=22	=22
4AA/	.	4a\	.	8a\L	.	2A\	-taſ	2a\	-taſ
.	.	.	.	8a\	.	.	.	.	.
4C#/	.	4ee\	.	8cc#\	.	.	.	.	.
.	.	.	.	8ee\	.	.	.	.	.
4AA/	.	4cc#\	.	8aa\	.	(4c#\	cu-	4ee\	cu-
.	.	.	.	8ee\J	.	.	.	.	.
!	!	!LO:LB:g=original	!	!LO:LB:g=original	!	!	!	!	!
=23	=23	=23	=23	=23	=23	=23	=23	=23	=23
4D/	.	4a\	.	8gg\L	.	4A\)	.	4ff#\	.
.	.	.	.	8dd\	.	.	.	.	.
!	!	!	!	!	!	!LO:SIC:l:s=-jus:v	!	!	!
4C#/	.	4a\	.	8ee\	.	8c#\	-ju	8ee\	-juſ
.	.	.	.	8a\	.	8c#\	par-	8ee\	par-
4AA/	.	4cc#\	.	8aa\	.	8c#\	-ti-	8ee\	-ti-
.	.	.	.	8ee\J	.	8c#\	-ci-	8ee\	-ci-
=24	=24	=24	=24	=24	=24	=24	=24	=24	=24
4D/	.	4a\	.	8ff#\L	.	8A\	-pa-	8ff#\	-pa-
.	.	.	.	8a\	.	8A\	-ti-	8ff#\	-ti-
4C#/	.	4a\	.	8ee\	.	4c#\	-o	4ee\	-o
.	.	.	.	8a\	.	.	.	.	.
4AA/	.	4cc#\	.	8aa\	.	8A\	e-	8ee\	e-
.	.	.	.	8ee\J	.	8A\	-jus	8ee\	-juſ
=25	=25	=25	=25	=25	=25	=25	=25	=25	=25
4D/	.	4a\	.	8ff#\L	.	2A\	in	(4ff#\	in
.	.	.	.	8dd\	.	.	.	.	.
4C#/	.	4a\	.	8ee\	.	.	.	4ee\)	.
.	.	.	.	8aa\	.	.	.	.	.
4BB/	.	8b\L	.	8dd\	.	4B\	id-	4dd\	id-
.	.	8dd\J	.	8bb\J	.	.	.	.	.
!	!	!	!	!	!	!LO:LB:g=original	!	!	!
=26	=26	=26	=26	=26	=26	=26	=26	=26	=26
*	*	*	*	*Xtuplet	*	*	*	*Xtuplet	*
4AA/	.	4a/	.	12cc#\L	.	4A\	-ip-	12cc#\L	-ip-
.	.	.	.	12b\	.	.	.	12b\	.
.	.	.	.	12a\J	.	.	.	12a\J	.
4E\	.	2g#Xt/	.	2cc#\	.	2G#X\	.	2bT\	.
4EE/	.	.	.	.	.	.	.	.	.
=27	=27	=27	=27	=27	=27	=27	=27	=27	=27
4AA/	.	8a\L	.	8a\L	.	4A\	-sum	4a\	-sum
.	.	8a\	.	8a\	.	.	.	.	.
4E\	.	8cc#\	.	8cc#\	.	4r	.	4r	.
.	.	8ee\	.	8ee\	.	.	.	.	.
4C#/	.	8aa\	.	8aa\	.	4r	.	4r	.
.	.	8ee\J	.	8ee\J	.	.	.	.	.
=28	=28	=28	=28	=28	=28	=28	=28	=28	=28
!	!	!	!	!	!	!LO:N:vis=00	!	!LO:N:vis=0	!
4D\	.	8.ff#\L	.	8.ff#\L	.	0.r	.	1.r	.
.	.	(32gg#X\LL	.	(32gg#X\LL	.	.	.	.	.
.	.	32aa\JJJ)	.	32aa\JJJ)	.	.	.	.	.
4F#\	.	8.dd\L	.	8.dd\L	.	.	.	.	.
.	.	(32ee\LL	.	(32ee\LL	.	.	.	.	.
.	.	32ff#\JJJ)	.	32ff#\JJJ)	.	.	.	.	.
4D\	.	8.b\L	.	8.b\L	.	.	.	.	.
.	.	(32cc#\LL	.	32cc#\LL	.	.	.	.	.
.	.	32dd\JJJ)	.	32dd\JJJ	.	.	.	.	.
=29	=29	=29	=29	=29	=29	=29	=29	=29	=29
4E\	.	8.g#X/L	.	8.g#X/L	.	.	.	.	.
.	.	(32a/LL	.	(32a/LL	.	.	.	.	.
.	.	32b/JJJ)	.	32b/JJJ)	.	.	.	.	.
.	.	8qqe/	.	8qqe/	.	.	.	.	.
4G#X\	.	4.d/	.	4.d/	.	.	.	.	.
4E\	.	.	.	.	.	.	.	.	.
.	.	8dd\	.	8dd\	.	.	.	.	.
=30	=30	=30	=30	=30	=30	=30	=30	=30	=30
*	*	*Xtuplet	*	*	*	*	*	*	*
4A\	.	12cc#\L	.	12cc#\L	.	.	.	2.r	.
.	.	12b\	.	12b\	.	.	.	.	.
.	.	12a\J	.	12a\J	.	.	.	.	.
*	*	*2\right	*	*	*	*	*	*	*
4E\	.	2bT\	.	2bT\	.	.	.	.	.
4EE/	.	.	.	.	.	.	.	.	.
=31	=31	=31	=31	=31	=31	=31	=31	=31	=31
4AA/	.	4a/	.	4a\	.	.	.	4a\	Il-
.	.	.	.	.	.	.	.	8qqcc#/	.
!	!LO:DY:a	!	!	!	!	!	!	!	!
4D\	p	4r	.	4r	.	.	.	4b\	.
.	.	.	.	.	.	.	.	8qqa/	.
4E\	.	4r	.	4r	.	.	.	4g\	-luc
=32	=32	=32	=32	=32	=32	=32	=32	=32	=32
.	.	.	.	.	.	.	.	8qqg/	.
!	!	!LO:N:vis=00	!	!LO:N:vis=00	!	!LO:N:vis=00	!	!	!
4AA/	.	0.r	.	0.r	.	0.r	.	2a\	e-
4C#/	.	.	.	.	.	.	.	.	.
4AA/	.	.	.	.	.	.	.	4e/	-nim
!	!	!	!	!	!	!	!	!LO:LB:g=original	!
=33	=33	=33	=33	=33	=33	=33	=33	=33	=33
4D\	.	.	.	.	.	.	.	2ff#\	aſ-
4d\	.	.	.	.	.	.	.	.	.
4B\	.	.	.	.	.	.	.	4dd\	-cen-
=34	=34	=34	=34	=34	=34	=34	=34	=34	=34
4C#/	.	.	.	.	.	.	.	2ee\	-de-
4c#\	.	.	.	.	.	.	.	.	.
!LO:TX:a:t=P:problem=niepewny zapis,uszkodzona kartka	!	!	!	!	!	!	!	!	!
.	.	.	.	.	.	.	.	8qqdd/	.
4B\	.	.	.	.	.	.	.	4cc#\	-runt
!LO:PB:g=original	!	!	!	!	!	!	!	!	!
=35	=35	=35	=35	=35	=35	=35	=35	=35	=35
4B\	.	.	.	.	.	.	.	8dd\	tri-
.	.	.	.	.	.	.	.	8dd\	-buſ
4F#\	.	.	.	.	.	.	.	4dd\	Do-
4G#X\	.	.	.	.	.	.	.	4dd\	-mi-
=36	=36	=36	=36	=36	=36	=36	=36	=36	=36
!	!	!LO:N:vis=00	!	!LO:N:vis=00	!	!LO:N:vis=00	!	!	!
4A\	.	0.r	.	0.r	.	0.r	.	4cc#\	-ni
4A\	.	.	.	.	.	.	.	4cc#\	teſ-
4F#\	.	.	.	.	.	.	.	(8b\L	-ti-
.	.	.	.	.	.	.	.	8a\J)	.
=37	=37	=37	=37	=37	=37	=37	=37	=37	=37
*2\right	*	*	*	*	*	*	*	*	*
2G#X\	.	.	.	.	.	.	.	4.b\	-mo-
.	.	.	.	.	.	.	.	8ee\	-ni-
4E\	.	.	.	.	.	.	.	4b\	-um
=38	=38	=38	=38	=38	=38	=38	=38	=38	=38
.	.	.	.	.	.	.	.	8qqb/	.
4F#\	.	.	.	.	.	.	.	2a\	Iſ-
4D#X\	.	.	.	.	.	.	.	.	.
4BB\	.	.	.	.	.	.	.	4a\	-ra-
=39	=39	=39	=39	=39	=39	=39	=39	=39	=39
.	.	.	.	.	.	.	.	8qqa/	.
4E\	.	.	.	.	.	.	.	2g#X\	-el
8E\L	.	.	.	.	.	.	.	.	.
8F#\	.	.	.	.	.	.	.	.	.
!	!	!	!	!	!	!	!	!LO:SIC:l:s=ad:v	!
8G#X\	.	.	.	.	.	.	.	8b\L	a
8A\J	.	.	.	.	.	.	.	8cc#\J	.
=40	=40	=40	=40	=40	=40	=40	=40	=40	=40
!	!	!LO:N:vis=0	!	!LO:N:vis=0	!	!LO:N:vis=0	!	!	!
4B\	.	1.r	.	1.r	.	1.r	.	2dd\	con-
4G#X\	.	.	.	.	.	.	.	.	.
4E\	.	.	.	.	.	.	.	4dd\	-fi-
=41	=41	=41	=41	=41	=41	=41	=41	=41	=41
4AA/	.	.	.	.	.	.	.	4cc#\	-ten-
4BB/	.	.	.	.	.	.	.	4b\	-dum
4C#/	.	.	.	.	.	.	.	4a\	no-
=42	=42	=42	=42	=42	=42	=42	=42	=42	=42
4D\	.	2.r	.	2.r	.	2.r	.	8b\	-mi-
.	.	.	.	.	.	.	.	8b\	-ni
.	.	.	.	.	.	.	.	8qqa/	.
4E\	.	.	.	.	.	.	.	4.g#X\	Do-
4EE/	.	.	.	.	.	.	.	.	.
.	.	.	.	.	.	.	.	8g#\	-mi-
!	!	!	!	!LO:PB:g=original	!	!	!	!LO:LB:g=original	!
=43	=43	=43	=43	=43	=43	=43	=43	=43	=43
!	!LO:DY:a	!	!	!	!	!	!	!	!
4AA/	f	4r	.	4r	.	4r	.	4a\	-ni
8AA/L	.	4cc#\	.	4aa\	.	8A\	Qui-	8cc#\	qui-
8BB/	.	.	.	.	.	8A\	-a	8cc#\	-a
8C#/	.	4cc#\	.	4aa\	.	4A\	il-	4cc#\	il-
8D/J	.	.	.	.	.	.	.	.	.
=44	=44	=44	=44	=44	=44	=44	=44	=44	=44
!	!	!	!	!	!	!LO:SIC:l:s=-lic:v	!	!LO:SIC:l:s=-lic:v	!
4E\	.	8b\L	.	8gg#X\L	.	8G#X\	-luc	8b\	-luc
!	!	!	!	!	!	!LO:SIC:l:s=se-:v	!	!	!
.	.	8b\J	.	8dd\J	.	8B\	sae-	8dd\	Se-
!	!	!	!	!	!	!	!	!LO:SIC:l:s=-de-:v	!
4G#X\	.	2bT\	.	2ddT\	.	2B\	-de-	2dd\	-dent-
4E\	.	.	.	.	.	.	.	.	.
!	!	!LO:LB:g=original	!	!	!	!	!	!	!
=45	=45	=45	=45	=45	=45	=45	=45	=45	=45
4A\	.	8a/L	.	8cc#\L	.	4A\	-runt	4cc#\	-runt
.	.	8e/	.	8a\	.	.	.	.	.
4AA/	.	8a/	.	8cc#\	.	4c#\	se-	4ee\	se-
.	.	8cc#/	.	8ee\	.	.	.	.	.
4AA/	.	8ee/	.	8aa\	.	4c#\	-deſ	4ee\	-deſ
.	.	8cc#/J	.	8ee\J	.	.	.	.	.
=46	=46	=46	=46	=46	=46	=46	=46	=46	=46
4AA/	.	8a/L	.	8cc#\L	.	8c#\	in	8ee\	in
.	.	8e/	.	8a\	.	8c#\	ju-	8ee\	ju-
4C#/	.	8ee/	.	8ggn\	.	4f#\	-di-	4gg\	-di-
.	.	8cc#/	.	8ee\	.	.	.	.	.
4AA/	.	8a/	.	8cc#\	.	4e\	-ci-	4gg\	-ci-
.	.	8e/J	.	8a\J	.	.	.	.	.
=47	=47	=47	=47	=47	=47	=47	=47	=47	=47
4D\	.	4a/	.	8ff#\L	.	4d\	-o	4ff#\	-o
.	.	.	.	8a\	.	.	.	.	.
4F#\	.	4a/	.	8dd\	.	2A\	se-	(4dd\	Se-
.	.	.	.	8ff#\	.	.	.	.	.
4D\	.	4f#/	.	8a\	.	.	.	4ccn\)	.
.	.	.	.	8ccn\J	.	.	.	.	.
=48	=48	=48	=48	=48	=48	=48	=48	=48	=48
4G\	.	4d/	.	8b\L	.	4D/	-deſ	4b\	-deſ
.	.	.	.	8b\	.	.	.	.	.
4G#X\	.	4b/	.	8ee\	.	2B\	Su-	(4ee\	Su-
.	.	.	.	8gg#X\	.	.	.	.	.
4E\	.	4g#X/	.	8b\	.	.	.	4dd\)	.
.	.	.	.	8dd\J	.	.	.	.	.
=49	=49	=49	=49	=49	=49	=49	=49	=49	=49
4A\	.	4e/	.	8cc#\L	.	4E/	-per	4cc#\	-per
.	.	.	.	8cc#\	.	.	.	.	.
4A#X\	.	4cc#\	.	8ff#\	.	4c#\	do-	4ff#\	do-
.	.	.	.	8aa#X\	.	.	.	.	.
4F#\	.	4a#X/	.	8cc#\	.	4c#\	-mum	4ee\	-mum
.	.	.	.	8ee\J	.	.	.	.	.
!LO:LB:g=original	!	!	!	!	!	!	!	!	!
=50	=50	=50	=50	=50	=50	=50	=50	=50	=50
4B\	.	8b\L	.	8dd\L	.	4B\	Da-	4dd\	Da-
.	.	8dd\J	.	8bb\J	.	.	.	.	.
!	!	!	!	!	!	!LO:TX:a:t=P:global:problem=niejednoznaczny zapis ozdobnika [przyjęto tryl]	!	!	!
4F#\	.	4a#X\	.	4f#/	.	2A#Xt\	.	2cc#t\	.
4FF#/	.	4cc#\	.	4aa#X\	.	.	.	.	.
=51	=51	=51	=51	=51	=51	=51	=51	=51	=51
4BB/	.	8b\L	.	8bb\L	.	4B\	-vid	4b\	-vid
.	.	8b\	.	8b\	.	.	.	.	.
4D/	.	8dd\	.	8dd\	.	4r	.	4r	.
.	.	8ff#\	.	8ff#\	.	.	.	.	.
4BB/	.	8bb\	.	8bb\	.	4r	.	4r	.
.	.	8ff#\J	.	8ff#\J	.	.	.	.	.
=52	=52	=52	=52	=52	=52	=52	=52	=52	=52
!	!	!	!	!	!	!LO:N:vis=0	!	!LO:N:vis=0	!
4E\	.	4gg\	.	4gg\	.	1.r	.	1.r	.
4G\	.	8.ee\L	.	8.ee\L	.	.	.	.	.
.	.	(32ff#\LL	.	(32ff#\LL	.	.	.	.	.
.	.	32gg\JJJ)	.	32gg\JJJ)	.	.	.	.	.
4E\	.	8.cc#\L	.	8.cc#\L	.	.	.	.	.
.	.	(32dd\LL	.	(32dd\LL	.	.	.	.	.
.	.	32ee\JJJ)	.	32ee\JJJ)	.	.	.	.	.
=53	=53	=53	=53	=53	=53	=53	=53	=53	=53
4F#\	.	8a#X\L	.	8a#X\L	.	.	.	.	.
.	.	8gg\J	.	8gg\J	.	.	.	.	.
.	.	8qqee/	.	8qqgg/	.	.	.	.	.
4A#X\	.	4.dd\	.	4.ff#\	.	.	.	.	.
4F#\	.	.	.	.	.	.	.	.	.
.	.	8cc#\	.	8ee\	.	.	.	.	.
=54	=54	=54	=54	=54	=54	=54	=54	=54	=54
4BB/	.	4b\	.	12dd\L	.	2.r	.	2.r	.
.	.	.	.	12cc#\	.	.	.	.	.
.	.	.	.	12b\J	.	.	.	.	.
4F#\	.	2a#Xt\	.	2cc#t\	.	.	.	.	.
4FF#/	.	.	.	.	.	.	.	.	.
!	!	!	!	!	!	!LO:LB:g=original	!	!	!
=55	=55	=55	=55	=55	=55	=55	=55	=55	=55
!	!LO:DY:a	!	!	!	!	!	!	!	!
4BB/	p	4b\	.	4b\	.	4r	.	4r	.
!	!	!	!LO:DY:a	!	!LO:DY:a	!LO:TX:a:t=Solo	!	!	!
4D/	.	2b\	p	[2ddT\	p	2B\	Ro-	2ddT\	Ro-
4BB/	.	.	.	.	.	.	.	.	.
!	!	!	!	!LO:LB:g=original	!	!	!	!LO:LB:g=original	!
=56	=56	=56	=56	=56	=56	=56	=56	=56	=56
!	!	!	!	!LO:TX:a:t=P:problem=brak zakończenia ligatury	!	!	!	!	!
4F#\	.	4b\	.	4dd\]	.	4B\	-ga-	4dd\	-ga-
4FF#/	.	4a#X\	.	4cc#\	.	4A#X\	-te	4cc#\	-te
4F#\	.	[4cc#\	.	[4ee\	.	4c#\	Ro-	4ee\	Ro-
=57	=57	=57	=57	=57	=57	=57	=57	=57	=57
4B\	.	4cc#\]	.	4ee\]	.	4c#\	-ga-	4ee\	-ga-
4BB/	.	4b\	.	4dd\	.	4B\	-te	4dd\	-te
4BB/	.	4r	.	4r	.	8d\	quae	8ff#\	quae
.	.	.	.	.	.	8d\	ad	8ff#\	ad
!	!	!LO:PB:g=original	!	!	!	!	!	!	!
=58	=58	=58	=58	=58	=58	=58	=58	=58	=58
!	!	!LO:N:vis=00	!	!LO:N:vis=00	!	!	!	!	!
4AA#X/	.	0.r	.	0.r	.	8e\	pa-	8gg\	pa-
.	.	.	.	.	.	8d\	-cem	8ff#\	-cem
4BB/	.	.	.	.	.	4c#\	ſunt	4ee\	Sunt
4E#X\	.	.	.	.	.	4B\	Je-	4dd\	Je-
=59	=59	=59	=59	=59	=59	=59	=59	=59	=59
4F#\	.	.	.	.	.	8B\	-ru-	8dd\	-ru-
.	.	.	.	.	.	8A#X\	-sa-	8cc#\	-sa-
4FF#/	.	.	.	.	.	4A#\	-lem	4cc#\	-lem
4F#\	.	.	.	.	.	4A#\	et	4cc#\	et
=60	=60	=60	=60	=60	=60	=60	=60	=60	=60
4E#X\	.	.	.	.	.	4B\	a-	4dd\	a-
4F#\	.	.	.	.	.	2A#X\	-bun-	2cc#\	-bun-
4F#\	.	.	.	.	.	.	.	.	.
=61	=61	=61	=61	=61	=61	=61	=61	=61	=61
4E#X\	.	.	.	.	.	8B\	-dan-	8dd\	-dan-
.	.	.	.	.	.	8B\	-ti-	8dd\	-ti-
4F#\	.	.	.	.	.	2A#X\	-a	2cc#\	-a
4F#\	.	.	.	.	.	.	.	.	.
=62	=62	=62	=62	=62	=62	=62	=62	=62	=62
8D\L	.	2.r	.	2.r	.	8d\	di-	8ff#\	di-
8E\J	.	.	.	.	.	8c#\	-li-	8ee\	-li-
4F#\	.	.	.	.	.	4B\	-gen-	4dd\	-gen-
!	!	!	!	!	!	!LO:SIC:l:s=-ti-:v	!	!	!
4FF#/	.	.	.	.	.	8A#X\	-tu-	8cc#\	-ti-
.	.	.	.	.	.	8A#\	-buſ	8cc#\	-buſ
=63	=63	=63	=63	=63	=63	=63	=63	=63	=63
4BB/	.	4r	.	4r	.	4B\	te	4b\	te
4D/	.	4r	.	4r	.	4r	.	4r	.
!	!	!	!LO:DY:a	!	!LO:DY:a	!	!	!	!
4F#\	.	4a#X/	f	4cc#\	f	4r	.	4r	.
=64	=64	=64	=64	=64	=64	=64	=64	=64	=64
!	!	!	!	!	!	!LO:N:vis=0	!	!LO:N:vis=0	!
4E#X\	.	4b/	.	4dd\	.	1.r	.	1.r	.
4F#\	.	4a#X/	.	4cc#\	.	.	.	.	.
4FF#/	.	8cc#\L	.	8ff#\L	.	.	.	.	.
.	.	8a#X\J	.	8cc#\J	.	.	.	.	.
=65	=65	=65	=65	=65	=65	=65	=65	=65	=65
4E#X\	.	4b\	.	4dd\	.	.	.	.	.
4F#\	.	4a#X\	.	4cc#\	.	.	.	.	.
4FF#/	.	4a#\	.	4cc#t\	.	.	.	.	.
=66	=66	=66	=66	=66	=66	=66	=66	=66	=66
8D\L	.	8b\L	.	8ff#\L	.	2.r	.	2.r	.
8E\J	.	8cc#\J	.	8ee\J	.	.	.	.	.
4F#\	.	4b\	.	4dd\	.	.	.	.	.
4FF#/	.	4a#X\	.	4cc#t\	.	.	.	.	.
!LO:LB:g=original	!	!	!	!	!	!LO:LB:g=original	!	!	!
=67	=67	=67	=67	=67	=67	=67	=67	=67	=67
!	!LO:DY:a	!	!	!	!	!	!	!	!
4BB/	f	4b\	.	4b\	.	4r	.	4r	.
4D\	.	8.dd\L	.	8.bb\L	.	4B\	fi-	4dd\	fi-
.	.	16dd\K	.	16bb\K	.	.	.	.	.
!	!	!	!	!	!	!LO:SIC:l:s=-at:v	!	!	!
4F#\	.	8.cc#\	.	8.aa#X\	.	4A#X\	-a	4cc#\	-at
.	.	16cc#\Jk	.	16aa#\Jk	.	.	.	.	.
!	!	!	!	!	!	!	!	!LO:LB:g=original	!
=68	=68	=68	=68	=68	=68	=68	=68	=68	=68
4BB/	.	4dd\	.	4bb\	.	4B\	pax	4dd\	pax
*	*	*	*	*	*	*	*ij	*	*
4D/	.	8.b\L	.	8.dd\L	.	4B\	fi-	4dd\	fi-
.	.	16b\K	.	16dd\K	.	.	.	.	.
!	!	!	!	!	!	!LO:SIC:l:s=-at:v	!	!	!
4F#/	.	8.a#X\	.	8.cc#\	.	4A#X\	-a	4cc#\	-at
.	.	16a#\Jk	.	16cc#\Jk	.	.	.	.	.
=69	=69	=69	=69	=69	=69	=69	=69	=69	=69
4BB/	.	4b/	.	4dd\	.	4B\	pax	4dd\	pax
4D/	.	8.d/L	.	8.b\L	.	4B\	fi-	4dd\	fi-
.	.	16d/K	.	16b\K	.	.	.	.	.
!	!	!	!	!	!	!LO:SIC:l:s=-at:v	!	!	!
4F#/	.	8.c#/	.	8.a#X\	.	4A#X\	-a	4cc#\	-at
.	.	16c#/Jk	.	16a#\Jk	.	.	.	.	.
=70	=70	=70	=70	=70	=70	=70	=70	=70	=70
4BB/	.	4d/	.	4b\	.	4B\	pax	4dd\	pax
*	*	*	*	*	*	*	*Xij	*	*
8BB/L	.	8dd\L	.	8b\L	.	8B\	in	8dd\	in
8C#/	.	8dd\	.	8bb\	.	8B\	Vir-	8dd\	Vir-
8D/	.	8dd\	.	8b\	.	8B\	-tu-	8dd\	-tu-
8E/J	.	8dd\J	.	8bb\J	.	8B\	-te	8dd\	-te
=71	=71	=71	=71	=71	=71	=71	=71	=71	=71
4F#\	.	4cc#\	.	4aa#X\	.	4A#X\	tu-	4cc#\	tu-
4FF#/	.	4cc#\	.	4aa#\	.	4A#\	-a	4cc#\	-a
4r	.	4r	.	4r	.	4r	.	4r	.
=72	=72	=72	=72	=72	=72	=72	=72	=72	=72
4D\	.	4r	.	4r	.	4r	.	4r	.
4F#\	.	8.ff#\L	.	8.ddd\L	.	4d\	Fi-	4ff#\	fi-
.	.	16ff#\K	.	16ddd\K	.	.	.	.	.
4A\	.	8.ee\	.	8.ccc#\	.	4c#\	-at	4ee\	-at
.	.	16ee\Jk	.	16ccc#\Jk	.	.	.	.	.
=73	=73	=73	=73	=73	=73	=73	=73	=73	=73
4D\	.	4ff#\	.	4ddd\	.	4d\	pax	4ff#\	pax
*	*	*	*	*	*	*	*ij	*	*
4F#\	.	8.dd\L	.	8.ff#\L	.	4d\	fi-	4ff#\	fi-
.	.	16dd\K	.	16ff#\K	.	.	.	.	.
4A\	.	8.cc#\	.	8.ee\	.	4c#\	-at	4ee\	-at
.	.	16cc#\Jk	.	16ee\Jk	.	.	.	.	.
!	!	!LO:LB:g=original	!	!LO:LB:g=original	!	!	!	!	!
=74	=74	=74	=74	=74	=74	=74	=74	=74	=74
4D\	.	4dd\	.	4ff#\	.	4d\	pax	4ff#\	pax
4F#\	.	8.f#/L	.	8.dd\L	.	4d\	fi-	4ff#\	fi-
.	.	16f#/K	.	16dd\K	.	.	.	.	.
4A\	.	8.e/	.	8.cc#\	.	4c#\	-at	4ee\	-at
.	.	16e/Jk	.	16cc#\Jk	.	.	.	.	.
=75	=75	=75	=75	=75	=75	=75	=75	=75	=75
4D\	.	4f#/	.	4ee\	.	4d\	pax	4ff#\	pax
*	*	*	*	*	*	*	*Xij	*	*
8D\L	.	8ff#\L	.	8dd\L	.	8d\	in	8ff#\	in
8E\	.	8ff#\	.	8ddd\	.	8d\	Vir-	8ff#\	Vir-
8F#\	.	8ff#\	.	8dd\	.	8d\	-tu-	8ff#\	-tu-
8G\J	.	8ff#\J	.	8ddd\J	.	8d\	-te	8ff#\	-te
=76	=76	=76	=76	=76	=76	=76	=76	=76	=76
4A\	.	4ee\	.	4ccc#\	.	4c#\	tu-	4ee\	tu-
!	!	!	!	!LO:TX:a:t=P:problem=mixed beam	!	!	!	!	!
4AA/	.	8ee\L	.	8ccc#\L	.	8c#\	-a	8ee\	-a
.	.	8a\	.	8a/	.	8A\	et	8ee\	et
4A\	.	8cc#\	.	8cc#/	.	8c#\	a-	8ee\	a-
.	.	8ee\J	.	8ee/J	.	8c#\	-bun-	8ee\	-bun-
!	!	!	!	!	!	!LO:LB:g=original	!	!	!
=77	=77	=77	=77	=77	=77	=77	=77	=77	=77
4d\	.	4a\	.	8ff#\L	.	8A\	-dan-	8ff#\	-dan-
.	.	.	.	8dd\	.	8A\	-ti-	8ff#\	-ti-
!	!	!	!	!	!	!	!	!LO:LB:g=original	!
4c#\	.	4a\	.	8ee\	.	4c#\	-a	4ee\	-a
.	.	.	.	8a\	.	.	.	.	.
4A\	.	4cc#\	.	8aa\	.	4c#\	in	4ee\	in
.	.	.	.	8ee\J	.	.	.	.	.
=78	=78	=78	=78	=78	=78	=78	=78	=78	=78
!	!	!	!	!	!	!LO:SIC:l:s=-tur-:v	!	!	!
4d\	.	4a\	.	8ff#\L	.	8A\	tu-	8ff#\	tur-
!	!	!	!	!	!	!LO:SIC:l:s=-ri-:v	!	!	!
.	.	.	.	8dd\	.	8A\	-ni-	8ff#\	-ri-
4c#\	.	4a\	.	8ee\	.	4c#\	-buſ	4ee\	-buſ
.	.	.	.	8a\	.	.	.	.	.
4A\	.	8cc#\L	.	8aa\	.	8c#\L	tu-	8ee\L	tu-
.	.	8ee\J	.	8gg\J	.	8e\J	.	8gg\J	.
=79	=79	=79	=79	=79	=79	=79	=79	=79	=79
4D\	.	4dd\	.	12ff#\L	.	4d\	.	4ff#\	.
.	.	.	.	12ee\	.	.	.	.	.
.	.	.	.	12dd\J	.	.	.	.	.
4A\	.	2cc#t\	.	2eeT\	.	2c#\	.	2ee\	.
4AA/	.	.	.	.	.	.	.	.	.
=80	=80	=80	=80	=80	=80	=80	=80	=80	=80
!	!LO:DY:a	!LO:TX:a:t=P:problem=mixed beam	!	!	!	!	!	!	!
4D\	p	8dd\L	.	(8dd\L	.	4d\	-iſ	4dd\	-is
.	.	(8f#/	.	8a\	.	.	.	.	.
!	!	!	!	!	!	!LO:TX:a:t=Solo	!	!	!
4r	.	8e/	.	8g\	.	2F#/	prop-	2a\	pro-
.	.	8d/	.	8f#\	.	.	.	.	.
4r	.	8e/	.	8g\	.	.	.	.	.
.	.	8f#/J)	.	8a\J)	.	.	.	.	.
=81	=81	=81	=81	=81	=81	=81	=81	=81	=81
4D\	.	8r	.	8r	.	2.G/	-ter	2.b\	-pter
.	.	8g/L	.	(8b\L	.	.	.	.	.
4r	.	(8f#/	.	8a\	.	.	.	.	.
.	.	8e/	.	8g\	.	.	.	.	.
4r	.	8f#/	.	8a\	.	.	.	.	.
.	.	8g/J)	.	8b\J)	.	.	.	.	.
=82	=82	=82	=82	=82	=82	=82	=82	=82	=82
4D\	.	4f#/	.	4a/	.	8F#/	fra-	8a\	fra-
.	.	.	.	.	.	8F#/	-treſ	8dd\	-treſ
.	.	8qqf#/	.	8qqa/	.	8qqF#/	.	8qqa/	.
!	!	!	!	!	!	!LO:SIC:l:s=me-:v	!	!	!
4A\	.	2e/	.	2g/	.	2E/	mae-	2g\	me-
4AA/	.	.	.	.	.	.	.	.	.
=83	=83	=83	=83	=83	=83	=83	=83	=83	=83
8D\L	.	8d/L	.	8f#/L	.	4D/	-oſ	4f#/	-os
8D\	.	8f#/	.	8a/	.	.	.	.	.
8D\	.	8f#/	.	8a/	.	2F#/	et	2a\	et
8D\	.	8f#/	.	8a/	.	.	.	.	.
8D\	.	8f#/	.	8a/	.	.	.	.	.
8D\J	.	8f#/J	.	8a/J	.	.	.	.	.
!LO:LB:g=original	!	!	!	!	!	!	!	!	!
=84	=84	=84	=84	=84	=84	=84	=84	=84	=84
8D\L	.	8a/L	.	8ccn\L	.	2A\	pro-	2ccn\	pro-
8D\	.	8a/	.	8cc\	.	.	.	.	.
8D\	.	8a/	.	8cc\	.	.	.	.	.
8D\	.	8a/	.	8cc\	.	.	.	.	.
8D\	.	8a/	.	8cc\	.	4A\	-xi-	4cc\	-xi-
8D\J	.	8a/J	.	8cc\J	.	.	.	.	.
=85	=85	=85	=85	=85	=85	=85	=85	=85	=85
.	.	.	.	.	.	8qqA/	.	8qqcc#/	.
!LO:TX:t=P:problem=mixed beam	!	!	!	!	!	!	!	!	!
8GG/L	.	8g/L	.	8b\L	.	2G/	-moſ	2b\	-mos
8E\	.	8g#/	.	8b\	.	.	.	.	.
8E\	.	8g#/	.	8b\	.	.	.	.	.
8E\	.	8g#/	.	8b\	.	.	.	.	.
8E\	.	8g#/	.	8b\	.	4G#X/	me-	4b\	me-
8E\J	.	8g#/J	.	8b\J	.	.	.	.	.
!	!	!LO:LB:g=original	!	!LO:LB:g=original	!	!	!	!	!
=86	=86	=86	=86	=86	=86	=86	=86	=86	=86
8E\L	.	8b\L	.	8dd\L	.	2.B\	.	2.dd\	.
8E\	.	8b\	.	8dd\	.	.	.	.	.
8E\	.	8b\	.	8dd\	.	.	.	.	.
8E\	.	8b\	.	8dd\	.	.	.	.	.
8E\	.	8b\	.	8dd\	.	.	.	.	.
8E\J	.	8b\J	.	8dd\J	.	.	.	.	.
=87	=87	=87	=87	=87	=87	=87	=87	=87	=87
4AA/	.	4a/	.	4cc#X\	.	8A\	-os	8cc#\	-os
.	.	.	.	.	.	8B\	lo-	8ee\	lo-
4C#/	.	4r	.	4r	.	8c#\L	-que-	8ee\L	-que-
.	.	.	.	.	.	8d\J	.	8ff#\J	.
!	!	!	!	!	!	!	!	!LO:SIC:l;s=-bar:v	!
4AA/	.	4r	.	4r	.	4e\	-bar	4gg\	-bor
=88	=88	=88	=88	=88	=88	=88	=88	=88	=88
4D\	.	2.r	.	2.r	.	8d\	pa-	16ff#\LL	pa-
.	.	.	.	.	.	.	.	16ee\JJ	.
.	.	.	.	.	.	8d\	-cem	8dd\	-cem
4A\	.	.	.	.	.	2c#\	de	2eeT\	de
4AA/	.	.	.	.	.	.	.	.	.
!	!	!	!	!	!	!LO:LB:g=original	!	!LO:LB:g=original	!
=89	=89	=89	=89	=89	=89	=89	=89	=89	=89
4D\	f	4r	.	4r	f	4d\	te	4dd\	te
!	!	!LO:TX:a:t=P:problem=mixed beam	!	!	!	!	!	!	!
4d\	.	8ff#\L	f	8aa\L	.	8d\	prop-	8ff#\	prop-
.	.	8f#/J	.	8dd\J	.	8d\	-ter	8ff#\	-ter
4A\	.	8.cc#\L	.	(8.ee\L	.	4c#\	do-	4ee\	do-
.	.	(32dd\LL	.	32ff#\LL	.	.	.	.	.
.	.	32ee\JJJ)	.	32gg\JJJ)	.	.	.	.	.
=90	=90	=90	=90	=90	=90	=90	=90	=90	=90
!	!	!LO:TX:a:t=P:problem=mixed beam	!	!	!	!	!	!	!
4D\	.	8dd\L	.	8ff#\L	.	4d\	-mum	4ff#\	-mum
.	.	8eeT\	.	8ggT\	.	.	.	.	.
4d\	.	8ff#\	.	8aa\	.	4d\	Do-	4ff#\	Do-
.	.	8f#/J	.	8dd\J	.	.	.	.	.
4A\	.	8.cc#\L	.	8.ee\L	.	4c#\	-mi-	4ee\	-mi-
.	.	(32dd\LL	.	32ff#\LL	.	.	.	.	.
.	.	32ee\JJJ)	.	32gg\JJJ	.	.	.	.	.
=91	=91	=91	=91	=91	=91	=91	=91	=91	=91
4D\	.	8dd\L	.	8ff#\L	.	4d\	-ni	4ff#\	-ni
.	.	8ff#\J	.	8ddd\J	.	.	.	.	.
4F#\	.	(16ff#\LL	.	16ddd\LL	.	4d\	De-	4ff#\	De-
.	.	16ee\)	.	16ccc#\	.	.	.	.	.
.	.	(16gg\	.	16bb\	.	.	.	.	.
.	.	16ff#\JJ)	.	16aa\JJ	.	.	.	.	.
4G\	.	8ee\L	.	8gg\L	.	8e\L	-i	8gg\L	-i
.	.	8dd\J	.	8ff#\J	.	8d\J	.	8ff#\J	.
=92	=92	=92	=92	=92	=92	=92	=92	=92	=92
4A\	.	4dd\	.	4gg\	.	4d\	noſ-	4ff#\	noſ-
!	!	!	!	!	!	!	!	!LO:SIC:l:s=-tri:v	!
4AA/	.	4cc#\	.	16ee\LL	.	4c#\	-tri	4ee\	-tre
.	.	.	.	16a\	.	.	.	.	.
.	.	.	.	16cc#\	.	.	.	.	.
.	.	.	.	16ee\JJ	.	.	.	.	.
!	!	!	!	!	!	!	!	!LO:SIC:l:s=quae-:v	!
4C#/	.	8ee\L	.	8gg\L	.	4c#\	quae-	4ee\	que-
.	.	8ee\J	.	8gg\J	.	.	.	.	.
=93	=93	=93	=93	=93	=93	=93	=93	=93	=93
4D/	.	4a\	.	(8ff#\L	.	4A\	-ſi-	4ff#\	-Si-
.	.	.	.	8dd\J)	.	.	.	.	.
4AA/	.	4cc#\	.	16ee\LL	.	4c#\	-vi	4ee\	-vi
.	.	.	.	16a\	.	.	.	.	.
.	.	.	.	16cc#\	.	.	.	.	.
.	.	.	.	16ee\JJ	.	.	.	.	.
!	!	!	!	!	!	!	!	!LO:SIC:l:s=quae-:v	!
4C#/	.	8ee\L	.	8gg\L	.	4A\	quae-	4ee\	que-
.	.	8ee\J	.	8gg\J	.	.	.	.	.
=94	=94	=94	=94	=94	=94	=94	=94	=94	=94
4D/	.	4a\	.	(8ff#\L	.	4A\	-ſi-	4ff#\	-Si-
.	.	.	.	8dd\J)	.	.	.	.	.
4AA/	.	4cc#\	.	16ee\LL	.	4c#\	-vi	4ee\	-vi
.	.	.	.	16a\	.	.	.	.	.
.	.	.	.	16cc#\	.	.	.	.	.
.	.	.	.	16ee\JJ	.	.	.	.	.
4C#/	.	8ee\L	.	8gg\L	.	8A\	bo-	8ee\	bo-
.	.	8ee\J	.	8gg\J	.	8A\	-na	8ee\	-na
=95	=95	=95	=95	=95	=95	=95	=95	=95	=95
4D/	.	4dd\	.	12ff#\L	.	4d\	ti-	4ff#\	ti-
.	.	.	.	12ee\	.	.	.	.	.
.	.	.	.	12dd\J	.	.	.	.	.
4A\	.	2cc#t\	.	2eeT\	.	2c#\	.	2ee\	.
4AA/	.	.	.	.	.	.	.	.	.
=96	=96	=96	=96	=96	=96	=96	=96	=96	=96
!	!	!LO:TX:a:t=P:problem=mixed beam	!	!LO:TX:a:t=P:problem=mixed beam	!	!	!	!	!
4D\	.	8dd\L	.	8dd\L	.	4d\	-bi	4dd\	-bi
.	.	8d/	.	8d/	.	.	.	.	.
4F#\	.	8f#/	.	8f#/	.	4r	.	4r	.
.	.	8a/	.	8a/	.	.	.	.	.
4D\	.	8dd/	.	8dd/	.	4r	.	4r	.
.	.	8a/J	.	8a/J	.	.	.	.	.
!	!	!	!	!LO:LB:g=original	!	!	!	!	!
=97	=97	=97	=97	=97	=97	=97	=97	=97	=97
!	!	!	!	!	!	!LO:N:vis=0	!	!LO:N:vis=00	!
4G\	.	8.b\L	.	8.b\L	.	1.r	.	0.r	.
.	.	(32cc#\LL	.	(32cc#\LL	.	.	.	.	.
.	.	32dd\JJJ)	.	32dd\JJJ)	.	.	.	.	.
4B\	.	8.g/L	.	8.g/L	.	.	.	.	.
.	.	(32a/LL	.	(32a/LL	.	.	.	.	.
.	.	32b/JJJ)	.	32b/JJJ)	.	.	.	.	.
4G\	.	8.e/L	.	8.e/L	.	.	.	.	.
.	.	(32f#/LL	.	(32f#/LL	.	.	.	.	.
.	.	32g/JJJ)	.	32g/JJJ)	.	.	.	.	.
!	!	!LO:LB:g=original	!	!	!	!	!	!	!
=98	=98	=98	=98	=98	=98	=98	=98	=98	=98
!	!	!	!	!LO:TX:a:t=P:problem=mixed beam	!	!	!	!	!
4A\	.	8.c#/L	.	8.c#/L	.	.	.	.	.
.	.	16b/Jk	.	16b\Jk	.	.	.	.	.
.	.	8qqg/	.	8qqb/	.	.	.	.	.
4C#/	.	4.f#/	.	4.a/	.	.	.	.	.
4AA/	.	.	.	.	.	.	.	.	.
.	.	8e/	.	8g/	.	.	.	.	.
=99	=99	=99	=99	=99	=99	=99	=99	=99	=99
4D\	.	4d/	.	12f#/L	.	2.r	.	.	.
.	.	.	.	12e/	.	.	.	.	.
.	.	.	.	12d/J	.	.	.	.	.
4A\	.	2cc#t\	.	2eeT\	.	.	.	.	.
4AA/	.	.	.	.	.	.	.	.	.
=100	=100	=100	=100	=100	=100	=100	=100	=100	=100
!	!LO:DY:a	!	!	!	!	!LO:TX:a:t=Solo	!	!	!
4D\	p	4dd\	.	4dd\	.	4d\	Glo-	.	.
.	.	.	.	.	.	8qqf#/	.	.	.
4G\	.	4r	.	4r	.	4e\	-ri-	.	.
.	.	.	.	.	.	8qqd/	.	.	.
4A\	.	4r	.	4r	.	4c#\	-a	.	.
=101	=101	=101	=101	=101	=101	=101	=101	=101	=101
!	!	!LO:N:vis=00	!	!LO:N:vis=00	!	!	!	!LO:N:vis=00	!
4D\	.	0.r	.	0.r	.	4d\	Pa-	0.r	.
4F#\	.	.	.	.	.	2A\	-tri	.	.
4D\	.	.	.	.	.	.	.	.	.
=102	=102	=102	=102	=102	=102	=102	=102	=102	=102
4GG/	.	.	.	.	.	4.B\	Glo-	.	.
4G\	.	.	.	.	.	.	.	.	.
.	.	.	.	.	.	8B\	-ri-	.	.
4E\	.	.	.	.	.	4g\	-a	.	.
!LO:LB:g=original	!	!	!	!	!	!LO:LB:g=original	!	!	!
=103	=103	=103	=103	=103	=103	=103	=103	=103	=103
4FF#/	.	.	.	.	.	4.A\	Glo-	.	.
4F#\	.	.	.	.	.	.	.	.	.
.	.	.	.	.	.	8A\	-ri-	.	.
4D\	.	.	.	.	.	4f#\	-a	.	.
=104	=104	=104	=104	=104	=104	=104	=104	=104	=104
.	.	.	.	.	.	8qqA/	.	.	.
4E\	.	.	.	.	.	2G/	fi-	.	.
4C#/	.	.	.	.	.	.	.	.	.
4AA/	.	.	.	.	.	4G/	-li-	.	.
=105	=105	=105	=105	=105	=105	=105	=105	=105	=105
!	!	!LO:N:vis=00	!	!LO:N:vis=00	!	!	!	!LO:N:vis=00	!
4D\	.	0.r	.	0.r	.	2F#/	-o	0.r	.
4E\	.	.	.	.	.	.	.	.	.
4F#\	.	.	.	.	.	(4A\	et	.	.
=106	=106	=106	=106	=106	=106	=106	=106	=106	=106
4G\	.	.	.	.	.	2B\)	.	.	.
4B\	.	.	.	.	.	.	.	.	.
4G\	.	.	.	.	.	4e\	Spi-	.	.
=107	=107	=107	=107	=107	=107	=107	=107	=107	=107
.	.	.	.	.	.	8qqd/	.	.	.
4A\	.	.	.	.	.	4c#\	-ri-	.	.
4G\	.	.	.	.	.	8B\L	-tu-	.	.
.	.	.	.	.	.	8A\J	.	.	.
4F#\	.	.	.	.	.	4d\	-i	.	.
=108	=108	=108	=108	=108	=108	=108	=108	=108	=108
4G\	.	.	.	.	.	12g\L	Sanc-	.	.
.	.	.	.	.	.	12f#\	.	.	.
.	.	.	.	.	.	12e\J	.	.	.
.	.	.	.	.	.	8qqd/	.	.	.
4A\	.	.	.	.	.	2c#\	.	.	.
4AA/	.	.	.	.	.	.	.	.	.
=109	=109	=109	=109	=109	=109	=109	=109	=109	=109
4D\	f	4r	.	4r	.	4d\	-to	4r	.
8D\L	.	4ff#\	.	4ddd\	.	4A\	si-	4ff#\	Si-
8E\	.	.	.	.	.	.	.	.	.
8F#\	.	4dd\	.	4ff#\	.	4A\	-cut	4ff#\	-cut
8G\J	.	.	.	.	.	.	.	.	.
=110	=110	=110	=110	=110	=110	=110	=110	=110	=110
4A\	.	4cc#\	.	4ee\	.	4c#\	e-	4ee\	e-
2A\	.	2cc#\	.	2ee\	.	2c#\	-rat	2ee\	-rat
!	!	!	!	!	!	!	!	!LO:LB:g=original	!
=111	=111	=111	=111	=111	=111	=111	=111	=111	=111
8G#X\L	.	8b\L	.	8bb\L	.	8d\	in	8b\	in
8A\J	.	8cc#\J	.	8aa\	.	8c#\	prin-	8cc#\	prin-
4B\	.	4dd\	.	8gg#X\	.	4B\	-ci-	4dd\	-ci-
.	.	.	.	8ff#\	.	.	.	.	.
4E\	.	4b\	.	8ee\	.	4B\	-pi-	4dd\	-pi-
.	.	.	.	8dd\J	.	.	.	.	.
=112	=112	=112	=112	=112	=112	=112	=112	=112	=112
4A\	.	4cc#\	.	8cc#\L	.	4A\	-o	4cc#\	-o
.	.	.	.	8ee\	.	.	.	.	.
4B\	.	4dd\	.	8ff#\	.	4G#X\	et	4dd\	et
.	.	.	.	8gg#X\	.	.	.	.	.
4c#\	.	8ee\L	.	8aa\	.	4A\	nunc	4ee\	nunc
.	.	8a\J	.	8ee\J	.	.	.	.	.
=113	=113	=113	=113	=113	=113	=113	=113	=113	=113
4d\	.	4b\	.	8ff#\L	.	4B\	et	8ff#\L	et
.	.	.	.	8dd\J	.	.	.	8dd\J	.
4e\	.	4a\	.	4cc#\	.	(4A\	sem-	4cc#\	Sem-
4E\	.	4g#X\	.	4bT\	.	4G#X\)	.	4bT\	.
=114	=114	=114	=114	=114	=114	=114	=114	=114	=114
.	.	.	.	8qqb/	.	.	.	.	.
4A\	.	4a\	.	4.a/	.	4A\	-per	4a\	-per
4c#\	.	4ee\	.	.	.	4r	.	4r	.
.	.	.	.	8a\L	.	.	.	.	.
4A\	.	4cc#\	.	8cc#\	.	8c#\	et	8ee\	et
.	.	.	.	8ee\J	.	8c#\	in	8ee\	in
!	!	!	!	!	!	!LO:LB:g=original	!	!	!
=115	=115	=115	=115	=115	=115	=115	=115	=115	=115
4d\	.	4a\	.	16ff#\LL	.	8A\	Sae-	8ff#\	Sae-
.	.	.	.	16aa\	.	.	.	.	.
.	.	.	.	16dd\	.	8A\	-cu-	8ff#\	-cu-
.	.	.	.	16ff#\JJ	.	.	.	.	.
4c#\	.	4a\	.	8ee\L	.	4c#\	-la	4ee\	-la
.	.	.	.	8a\	.	.	.	.	.
4A\	.	4cc#\	.	8cc#\	.	8c#\	et	8ee\	et
.	.	.	.	8ee\J	.	8c#\	in	8ee\	in
=116	=116	=116	=116	=116	=116	=116	=116	=116	=116
4d\	.	4a\	.	16ff#\LL	.	8A\	Sae-	8ff#\	Sae-
.	.	.	.	16aa\	.	.	.	.	.
.	.	.	.	16dd\	.	8A\	-cu-	8ff#\	-cu-
.	.	.	.	16ff#\JJ	.	.	.	.	.
4c#\	.	4a\	.	8ee\L	.	4c#\	-la	4ee\	-la
.	.	.	.	8a\J	.	.	.	.	.
4A\	.	8ee\L	.	8gg\L	.	8c#\	Sae-	8ee\	Sae-
.	.	16dd\L	.	16ff#\L	.	8c#\	-cu-	8ee\	-cu
.	.	16cc#\JJ	.	16ee\JJ	.	.	.	.	.
!	!	!	!	!LO:LB:g=original	!	!	!	!	!
=117	=117	=117	=117	=117	=117	=117	=117	=117	=117
4D\	.	16dd\LL	.	16gg\LL	.	4d\	-lo-	4ff#\	lo-
.	.	16ff#\	.	16aa\	.	.	.	.	.
.	.	16gg\	.	16bb\	.	.	.	.	.
.	.	16ee\JJ	.	16ccc#\JJ	.	.	.	.	.
!LO:TX:a:t=P:problem=mixed beam	!	!	!	!	!	!	!	!	!
8F#\L	.	8ff#\L	.	8ddd\L	.	4d\	-rum	4ff#\	-rum
8G\	.	8dd\J	.	8dd\J	.	.	.	.	.
8A\	.	8a\L	.	8a\L	.	4c#\	a-	4ee\	a-
8AA/J	.	8cc#t\J	.	8eeT\J	.	.	.	.	.
=118	=118	=118	=118	=118	=118	=118	=118	=118	=118
4D\	.	4dd\	.	4dd\	.	4d\	-men	4dd\	-men
4A\	.	4ff#\	.	4ddd\	.	(4d\	a-	(4ff#\	a-
4AA/	.	4ee\	.	4ccc#\	.	4c#\)	.	4ee\)	.
=119	=119	=119	=119	=119	=119	=119	=119	=119	=119
4D\	.	4ff#\	.	4ddd\	.	4d\	-men	4ff#\	-men
4r	.	4r	.	4r	.	4r	.	4r	.
4r	.	4r	.	4r	.	4r	.	4r	.
==	==	==	==	==	==	==	==	==	==
*-	*-	*-	*-	*-	*-	*-	*-	*-	*-
!!!system-decoration: [g1][g2]s5
!!!RDF**kern: > = above
!!!RDF**kern: < = below
!!!RDF**dynam: f = "for"
!!!RDF**dynam: p = "pia"
!!!ENC: Marta Lawrence
!!!END: 2020-09-10
!!!ENC: Andrzej Gręziak
!!!END: 2020-05-15
!!!YEC: Copyright 2022 Narodowy Instytut Fryderyka Chopina (https://polishscores.org)
!!!YEM: Licence CC BY 4.0 (https://creativecommons.org/licenses/by/4.0)
